svgs/pingdom-dark.svg

<svg height="85" viewBox="0 0 322 85" width="322" xmlns="http://www.w3.org/2000/svg"><g fill="#06457f" fill-rule="evenodd"><path d="m135.93029 50.1164474c-6.046511 0-10.960138-4.9277632-10.960138-10.9828948 0-6.0506579 4.913627-10.9717105 10.960138-10.9717105 6.048744 0 10.97131 4.9210526 10.97131 10.9717105 0 6.0551316-4.922566 10.9828948-10.97131 10.9828948zm0-33.9217106c-12.631531 0-22.914621 10.2917106-22.914621 22.9388158 0 12.651579 10.28309 22.9432895 22.914621 22.9432895 3.970676 0 7.7112-1.0155263 10.97131-2.8005263v2.7826316c0 6.0506579-4.922566 10.978421-10.97131 10.978421-3.300331 0-5.970538 2.6730263-5.970538 5.9813158 0 3.2993421 2.670207 5.9768421 5.970538 5.9768421 12.642703 0 22.925793-10.285 22.925793-22.9365789v-22.9253948c0-12.6471052-10.28309-22.9388158-22.925793-22.9388158z"/><path d="m22.9146207 50.1164474c-6.0465104 0-10.9623724-4.9277632-10.9623724-10.9828948 0-6.0506579 4.915862-10.9717105 10.9623724-10.9717105 6.0465103 0 10.9623724 4.9210526 10.9623724 10.9717105 0 6.0551316-4.9158621 10.9828948-10.9623724 10.9828948zm0-33.9217106c-12.636 0-22.9146207 10.2917106-22.9146207 22.9388158v32.6534211c0 3.3060526 2.6702069 5.9790789 5.97277241 5.9790789 3.3048 0 5.97947589-2.6730263 5.97947589-5.9790789v-12.5106579c3.2556414 1.7872368 6.993931 2.8005263 10.9623724 2.8005263 12.6337655 0 22.9146207-10.2917105 22.9146207-22.9432895 0-12.6471052-10.2808552-22.9388158-22.9146207-22.9388158z"/><path d="m87.2476138 16.1947368c-12.6382345 0-22.9146207 10.2917106-22.9146207 22.9388158v16.9597369c0 3.3082894 2.6746759 5.9835526 5.9727724 5.9835526 3.3048 0 5.9794759-2.6752632 5.9794759-5.9835526v-16.9597369c0-6.0506579 4.915862-10.9717105 10.9623724-10.9717105 6.0465103 0 10.9668414 4.9210526 10.9668414 10.9717105v16.9597369c0 3.3082894 2.6724418 5.9835526 5.9772418 5.9835526 3.298096 0 5.970537-2.6752632 5.970537-5.9835526v-16.9597369c0-12.6471052-10.2786202-22.9388158-22.9146202-22.9388158"/><path d="m233.306814 49.9128947c-6.046511 0-10.966842-4.9232894-10.966842-10.9761842 0-6.0551316 4.920331-10.9739473 10.966842-10.9739473 6.044276 0 10.964607 4.9188157 10.964607 10.9739473 0 6.0528948-4.920331 10.9761842-10.964607 10.9761842zm0-33.9194736c-12.640469 0-22.921324 10.2939473-22.921324 22.9432894s10.280855 22.9388158 22.921324 22.9388158c12.631531 0 22.916855-10.2894737 22.916855-22.9388158s-10.285324-22.9432894-22.916855-22.9432894z"/><path d="m184.617434 50.1164474c-6.044275 0-10.962372-4.9277632-10.962372-10.9828948 0-6.0506579 4.918097-10.9717105 10.962372-10.9717105 6.048745 0 10.969076 4.9210526 10.969076 10.9717105 0 6.0551316-4.920331 10.9828948-10.969076 10.9828948zm16.941849-49.61539477c-3.298097 0-5.972773 2.6775-5.972773 5.98131579v12.51513158c-3.262344-1.7872368-6.993931-2.8027632-10.969076-2.8027632-12.636 0-22.916855 10.2917106-22.916855 22.9388158 0 12.651579 10.280855 22.9432895 22.916855 22.9432895 12.640469 0 22.916856-10.2917105 22.916856-22.9432895v-32.65118418c0-3.30381579-2.672442-5.98131579-5.975007-5.98131579z"/><path d="m54.6599172 16.1947368c-3.300331 0-5.9772413 2.6775-5.9772413 5.9857895v33.9127632c0 3.3082894 2.6769103 5.9835526 5.9772413 5.9835526 3.3003311 0 5.9772414-2.6752632 5.9772414-5.9835526v-33.9127632c0-3.3082895-2.6769103-5.9857895-5.9772414-5.9857895"/><path d="m48.6826759 6.48236842c0 3.30605263 2.6769103 5.98355268 5.9772413 5.98355268 3.3003311 0 5.9772414-2.67750005 5.9772414-5.98355268 0-3.30381579-2.6769103-5.98131579-5.9772414-5.98131579-3.300331 0-5.9772413 2.6775-5.9772413 5.98131579"/><path d="m290.460414 61.88c3.298096 0 5.975007-2.6775 5.975007-5.9880263v-25.4351316c0-1.3778947 1.119476-2.4940789 2.498151-2.4940789 6.048745 0 10.964607 4.9188157 10.964607 10.9739473v16.9552632c0 3.3105263 2.674676 5.9880263 5.975007 5.9880263s5.977242-2.6775 5.977242-5.9880263v-16.9552632c0-12.6493421-10.280856-22.9432894-22.916856-22.9432894-3.00091 0-5.854344.5994736-8.473158 1.6597368-2.621048-1.0602632-5.474483-1.6597368-8.470924-1.6597368-12.638235 0-22.921324 10.2939473-22.921324 22.9432894v16.9552632c0 3.3105263 2.679144 5.9880263 5.983944 5.9880263 3.291393 0 5.970538-2.6775 5.970538-5.9880263v-16.9552632c0-6.0551316 4.920331-10.9739473 10.966842-10.9739473 1.374207 0 2.493682 1.1161842 2.493682 2.4940789v25.4351316c0 3.3105263 2.674676 5.9880263 5.977242 5.9880263"/></g></svg>

<?xml version="1.0" encoding="UTF-8"?>
<svg width="322px" height="85px" viewBox="0 0 322 85" version="1.1" xmlns="http://www.w3.org/2000/svg" xmlns:xlink="http://www.w3.org/1999/xlink">
    <!-- Generator: Sketch 41.2 (35397) - http://www.bohemiancoding.com/sketch -->
    <title>pingdom-dark</title>
    <desc>Created with Sketch.</desc>
    <defs></defs>
    <g id="Page-1" stroke="none" stroke-width="1" fill="none" fill-rule="evenodd">
        <g id="Desktop-HD" transform="translate(-559.000000, -1666.000000)" fill="#06457F">
            <g id="pingdom-dark" transform="translate(559.000000, 1666.000000)">
                <g id="Page-1">
                    <g>
                        <g id="pingdom-dark">
                            <path d="M135.93029,50.1164474 C129.883779,50.1164474 124.970152,45.1886842 124.970152,39.1335526 C124.970152,33.0828947 129.883779,28.1618421 135.93029,28.1618421 C141.979034,28.1618421 146.9016,33.0828947 146.9016,39.1335526 C146.9016,45.1886842 141.979034,50.1164474 135.93029,50.1164474 L135.93029,50.1164474 Z M135.93029,16.1947368 C123.298759,16.1947368 113.015669,26.4864474 113.015669,39.1335526 C113.015669,51.7851316 123.298759,62.0768421 135.93029,62.0768421 C139.900966,62.0768421 143.64149,61.0613158 146.9016,59.2763158 L146.9016,62.0589474 C146.9016,68.1096053 141.979034,73.0373684 135.93029,73.0373684 C132.629959,73.0373684 129.959752,75.7103947 129.959752,79.0186842 C129.959752,82.3180263 132.629959,84.9955263 135.93029,84.9955263 C148.572993,84.9955263 158.856083,74.7105263 158.856083,62.0589474 L158.856083,39.1335526 C158.856083,26.4864474 148.572993,16.1947368 135.93029,16.1947368 L135.93029,16.1947368 Z" id="Fill-1"></path>
                            <path d="M22.9146207,50.1164474 C16.8681103,50.1164474 11.9522483,45.1886842 11.9522483,39.1335526 C11.9522483,33.0828947 16.8681103,28.1618421 22.9146207,28.1618421 C28.961131,28.1618421 33.8769931,33.0828947 33.8769931,39.1335526 C33.8769931,45.1886842 28.961131,50.1164474 22.9146207,50.1164474 L22.9146207,50.1164474 Z M22.9146207,16.1947368 C10.2786207,16.1947368 0,26.4864474 0,39.1335526 L0,71.7869737 C0,75.0930263 2.6702069,77.7660526 5.97277241,77.7660526 C9.27757241,77.7660526 11.9522483,75.0930263 11.9522483,71.7869737 L11.9522483,59.2763158 C15.2078897,61.0635526 18.9461793,62.0768421 22.9146207,62.0768421 C35.5483862,62.0768421 45.8292414,51.7851316 45.8292414,39.1335526 C45.8292414,26.4864474 35.5483862,16.1947368 22.9146207,16.1947368 L22.9146207,16.1947368 Z" id="Fill-2"></path>
                            <path d="M87.2476138,16.1947368 C74.6093793,16.1947368 64.3329931,26.4864474 64.3329931,39.1335526 L64.3329931,56.0932895 C64.3329931,59.4015789 67.007669,62.0768421 70.3057655,62.0768421 C73.6105655,62.0768421 76.2852414,59.4015789 76.2852414,56.0932895 L76.2852414,39.1335526 C76.2852414,33.0828947 81.2011034,28.1618421 87.2476138,28.1618421 C93.2941241,28.1618421 98.2144552,33.0828947 98.2144552,39.1335526 L98.2144552,56.0932895 C98.2144552,59.4015789 100.886897,62.0768421 104.191697,62.0768421 C107.489793,62.0768421 110.162234,59.4015789 110.162234,56.0932895 L110.162234,39.1335526 C110.162234,26.4864474 99.8836138,16.1947368 87.2476138,16.1947368" id="Fill-3"></path>
                            <path d="M233.306814,49.9128947 C227.260303,49.9128947 222.339972,44.9896053 222.339972,38.9367105 C222.339972,32.8815789 227.260303,27.9627632 233.306814,27.9627632 C239.35109,27.9627632 244.271421,32.8815789 244.271421,38.9367105 C244.271421,44.9896053 239.35109,49.9128947 233.306814,49.9128947 L233.306814,49.9128947 Z M233.306814,15.9934211 C220.666345,15.9934211 210.38549,26.2873684 210.38549,38.9367105 C210.38549,51.5860526 220.666345,61.8755263 233.306814,61.8755263 C245.938345,61.8755263 256.223669,51.5860526 256.223669,38.9367105 C256.223669,26.2873684 245.938345,15.9934211 233.306814,15.9934211 L233.306814,15.9934211 Z" id="Fill-4"></path>
                            <path d="M184.617434,50.1164474 C178.573159,50.1164474 173.655062,45.1886842 173.655062,39.1335526 C173.655062,33.0828947 178.573159,28.1618421 184.617434,28.1618421 C190.666179,28.1618421 195.58651,33.0828947 195.58651,39.1335526 C195.58651,45.1886842 190.666179,50.1164474 184.617434,50.1164474 L184.617434,50.1164474 Z M201.559283,0.501052632 C198.261186,0.501052632 195.58651,3.17855263 195.58651,6.48236842 L195.58651,18.9975 C192.324166,17.2102632 188.592579,16.1947368 184.617434,16.1947368 C171.981434,16.1947368 161.700579,26.4864474 161.700579,39.1335526 C161.700579,51.7851316 171.981434,62.0768421 184.617434,62.0768421 C197.257903,62.0768421 207.53429,51.7851316 207.53429,39.1335526 L207.53429,6.48236842 C207.53429,3.17855263 204.861848,0.501052632 201.559283,0.501052632 L201.559283,0.501052632 Z" id="Fill-5"></path>
                            <path d="M54.6599172,16.1947368 C51.3595862,16.1947368 48.6826759,18.8722368 48.6826759,22.1805263 L48.6826759,56.0932895 C48.6826759,59.4015789 51.3595862,62.0768421 54.6599172,62.0768421 C57.9602483,62.0768421 60.6371586,59.4015789 60.6371586,56.0932895 L60.6371586,22.1805263 C60.6371586,18.8722368 57.9602483,16.1947368 54.6599172,16.1947368" id="Fill-6"></path>
                            <path d="M48.6826759,6.48236842 C48.6826759,9.78842105 51.3595862,12.4659211 54.6599172,12.4659211 C57.9602483,12.4659211 60.6371586,9.78842105 60.6371586,6.48236842 C60.6371586,3.17855263 57.9602483,0.501052632 54.6599172,0.501052632 C51.3595862,0.501052632 48.6826759,3.17855263 48.6826759,6.48236842" id="Fill-7"></path>
                            <path d="M290.460414,61.88 C293.75851,61.88 296.435421,59.2025 296.435421,55.8919737 L296.435421,30.4568421 C296.435421,29.0789474 297.554897,27.9627632 298.933572,27.9627632 C304.982317,27.9627632 309.898179,32.8815789 309.898179,38.9367105 L309.898179,55.8919737 C309.898179,59.2025 312.572855,61.88 315.873186,61.88 C319.173517,61.88 321.850428,59.2025 321.850428,55.8919737 L321.850428,38.9367105 C321.850428,26.2873684 311.569572,15.9934211 298.933572,15.9934211 C295.932662,15.9934211 293.079228,16.5928947 290.460414,17.6531579 C287.839366,16.5928947 284.985931,15.9934211 281.98949,15.9934211 C269.351255,15.9934211 259.068166,26.2873684 259.068166,38.9367105 L259.068166,55.8919737 C259.068166,59.2025 261.74731,61.88 265.05211,61.88 C268.343503,61.88 271.022648,59.2025 271.022648,55.8919737 L271.022648,38.9367105 C271.022648,32.8815789 275.942979,27.9627632 281.98949,27.9627632 C283.363697,27.9627632 284.483172,29.0789474 284.483172,30.4568421 L284.483172,55.8919737 C284.483172,59.2025 287.157848,61.88 290.460414,61.88" id="Fill-8"></path>
                        </g>
                    </g>
                </g>
            </g>
        </g>
    </g>
</svg>
